NotoEmoji/emoji_u1f6ab.svg

<svg enable-background="new 0 0 128 128" viewBox="0 0 128 128" xmlns="http://www.w3.org/2000/svg"><path d="m64 4c-33.1 0-60 26.9-60 60s26.9 60 60 60 60-26.9 60-60-26.9-60-60-60zm50 60c0 12-4.2 23-11.3 31.6l-70.3-70.3c8.6-7.1 19.6-11.3 31.6-11.3 27.6 0 50 22.4 50 50zm-100 0c0-12 4.2-23 11.3-31.6l70.3 70.3c-8.6 7.1-19.6 11.3-31.6 11.3-27.6 0-50-22.4-50-50z" fill="#c33"/><path d="m60.1 7c-13.1 0-25.1 4.5-34.7 12l-.1-.1-1.1 1.1c-12.3 10.3-20.2 25.8-20.2 43.1 0 31 25.1 56.1 56.1 56.1s56.1-25.1 56.1-56.1-25.1-56.1-56.1-56.1zm-27.7 18.3c8.6-7.1 19.6-11.3 31.6-11.3 27.6 0 50 22.4 50 50 0 12-4.2 23-11.3 31.6l-70.6-70zm-18.4 38.7c0-11.8 4.1-22.7 11-31.2l70.6 69.9c-8.6 7.1-19.6 11.3-31.6 11.3-27.6 0-50-22.4-50-50z" fill="#f44336"/><path d="m45 10.9c1.7-.4 4.2-1.6 5.9-1.1 1 .3 1.9 1.5 1.5 2.5-.3.8-1.1 1.3-2 1.5-4.1 1.1-7.7 2.3-11.3 4.1-7.1 3.7-13.5 9.3-18.1 15.8-1.9 2.7-3.4 5.5-5.8 7.8-.2.2-.5.4-.8.4-.2 0-.4 0-.5-.1-1.2-.5-1.4-1.1-1.2-2.3.2-1 .5-2 1-2.9.9-1.8 2.2-3.4 3.3-5.1 1.9-2.9 4.1-5.6 6.6-8 6.8-6.3 15.6-11.1 21.4-12.6z" fill="#ff8a80"/><path d="m32.4 25.3-2 2 71.1 71.1 1.8-2.2z" fill="#c33"/></svg>

<?xml version="1.0" encoding="utf-8"?>
<!-- Generator: Adobe Illustrator 25.2.3, SVG Export Plug-In . SVG Version: 6.00 Build 0)  -->
<svg version="1.1" id="Layer_1" xmlns="http://www.w3.org/2000/svg" xmlns:xlink="http://www.w3.org/1999/xlink" x="0px" y="0px"
	 viewBox="0 0 128 128" style="enable-background:new 0 0 128 128;" xml:space="preserve">
<path style="fill:#CC3333;" d="M64,4C30.9,4,4,30.9,4,64s26.9,60,60,60s60-26.9,60-60S97.1,4,64,4z M114,64c0,12-4.2,23-11.3,31.6
	L32.4,25.3C41,18.2,52,14,64,14C91.6,14,114,36.4,114,64z M14,64c0-12,4.2-23,11.3-31.6l70.3,70.3C87,109.8,76,114,64,114
	C36.4,114,14,91.6,14,64z"/>
<path style="fill:#F44336;" d="M60.1,7C47,7,35,11.5,25.4,19l-0.1-0.1L24.2,20C11.9,30.3,4,45.8,4,63.1c0,31,25.1,56.1,56.1,56.1
	s56.1-25.1,56.1-56.1S91.1,7,60.1,7z M32.4,25.3C41,18.2,52,14,64,14c27.6,0,50,22.4,50,50c0,12-4.2,23-11.3,31.6l0,0l-70.6-70
	L32.4,25.3z M14,64c0-11.8,4.1-22.7,11-31.2l70.6,69.9C87,109.8,76,114,64,114C36.4,114,14,91.6,14,64z"/>
<path style="fill:#FF8A80;" d="M45,10.9c1.7-0.4,4.2-1.6,5.9-1.1c1,0.3,1.9,1.5,1.5,2.5c-0.3,0.8-1.1,1.3-2,1.5
	c-4.1,1.1-7.7,2.3-11.3,4.1C32,21.6,25.6,27.2,21,33.7c-1.9,2.7-3.4,5.5-5.8,7.8c-0.2,0.2-0.5,0.4-0.8,0.4c-0.2,0-0.4,0-0.5-0.1
	c-1.2-0.5-1.4-1.1-1.2-2.3c0.2-1,0.5-2,1-2.9c0.9-1.8,2.2-3.4,3.3-5.1c1.9-2.9,4.1-5.6,6.6-8C30.4,17.2,39.2,12.4,45,10.9z"/>
<polygon style="fill:#CC3333;" points="32.4,25.3 30.4,27.3 101.5,98.4 103.3,96.2 "/>
</svg>
